Newaita-dark/actions/22/zoom-fit-selection.svg

<svg height="22" viewBox="0 0 22 22" width="22" xmlns="http://www.w3.org/2000/svg"><g fill="#e0e0e0"><path d="m3.636719 1.992188c-1.007813 0-1.816407.808593-1.816407 1.816406v3.640625h1.816407v-2.730469c0-.503906.40625-.910156.910156-.910156h2.730469v-1.816406zm10.917969 0v1.816406h2.726562c.503906 0 .910156.40625.910156.910156v2.730469h1.820313v-3.640625c0-1.007813-.8125-1.816406-1.820313-1.816406zm-12.734376 12.734374v3.636719c0 1.007813.808594 1.820313 1.816407 1.820313h3.640625v-1.820313h-2.730469c-.503906 0-.910156-.40625-.910156-.910156v-2.726563zm16.371094 0v2.726563c0 .503906-.40625.910156-.910156.910156h-2.726562v1.820313h3.636718c1.007813 0 1.820313-.8125 1.820313-1.820313v-3.636719zm0 0"/><path d="m8.1875 7.449219c-.503906 0-.910156.40625-.910156.910156v5.457031c0 .503906.40625.910156.910156.910156h5.457031c.503907 0 .910157-.40625.910157-.910156v-5.457031c0-.503906-.40625-.910156-.910157-.910156zm1.363281 1.820312h2.730469c.25 0 .453125.199219.453125.453125v2.730469c0 .25-.203125.453125-.453125.453125h-2.730469c-.253906 0-.453125-.203125-.453125-.453125v-2.730469c0-.253906.199219-.453125.453125-.453125zm0 0"/></g></svg>

<?xml version="1.0" encoding="UTF-8"?>
<svg xmlns="http://www.w3.org/2000/svg" xmlns:xlink="http://www.w3.org/1999/xlink" width="22px" height="22px" viewBox="0 0 22 22" version="1.1">
<g id="surface1">
<path style=" stroke:none;fill-rule:nonzero;fill:rgb(87.843138%,87.843138%,87.843138%);fill-opacity:1;" d="M 3.636719 1.992188 C 2.628906 1.992188 1.820312 2.800781 1.820312 3.808594 L 1.820312 7.449219 L 3.636719 7.449219 L 3.636719 4.71875 C 3.636719 4.214844 4.042969 3.808594 4.546875 3.808594 L 7.277344 3.808594 L 7.277344 1.992188 Z M 14.554688 1.992188 L 14.554688 3.808594 L 17.28125 3.808594 C 17.785156 3.808594 18.191406 4.214844 18.191406 4.71875 L 18.191406 7.449219 L 20.011719 7.449219 L 20.011719 3.808594 C 20.011719 2.800781 19.199219 1.992188 18.191406 1.992188 Z M 1.820312 14.726562 L 1.820312 18.363281 C 1.820312 19.371094 2.628906 20.183594 3.636719 20.183594 L 7.277344 20.183594 L 7.277344 18.363281 L 4.546875 18.363281 C 4.042969 18.363281 3.636719 17.957031 3.636719 17.453125 L 3.636719 14.726562 Z M 18.191406 14.726562 L 18.191406 17.453125 C 18.191406 17.957031 17.785156 18.363281 17.28125 18.363281 L 14.554688 18.363281 L 14.554688 20.183594 L 18.191406 20.183594 C 19.199219 20.183594 20.011719 19.371094 20.011719 18.363281 L 20.011719 14.726562 Z M 18.191406 14.726562 "/>
<path style=" stroke:none;fill-rule:nonzero;fill:rgb(87.843138%,87.843138%,87.843138%);fill-opacity:1;" d="M 8.1875 7.449219 C 7.683594 7.449219 7.277344 7.855469 7.277344 8.359375 L 7.277344 13.816406 C 7.277344 14.320312 7.683594 14.726562 8.1875 14.726562 L 13.644531 14.726562 C 14.148438 14.726562 14.554688 14.320312 14.554688 13.816406 L 14.554688 8.359375 C 14.554688 7.855469 14.148438 7.449219 13.644531 7.449219 Z M 9.550781 9.269531 L 12.28125 9.269531 C 12.53125 9.269531 12.734375 9.46875 12.734375 9.722656 L 12.734375 12.453125 C 12.734375 12.703125 12.53125 12.90625 12.28125 12.90625 L 9.550781 12.90625 C 9.296875 12.90625 9.097656 12.703125 9.097656 12.453125 L 9.097656 9.722656 C 9.097656 9.46875 9.296875 9.269531 9.550781 9.269531 Z M 9.550781 9.269531 "/>
</g>
</svg>
